32x32/apps/com.github.phase1geo.minder.svg

<svg xmlns="http://www.w3.org/2000/svg" xmlns:xlink="http://www.w3.org/1999/xlink" width="32" height="32"><defs><path id="a" d="M490.72 139.23c4.1 0 7.42 3.32 7.42 7.42v60.83c0 4.1-3.32 7.42-7.42 7.42H361.65c-4.1 0-7.43-3.32-7.43-7.42v-60.83c0-4.1 3.33-7.42 7.43-7.42h129.07z"/><path id="b" d="M297.34 214.9c5.52 0 10 4.48 10 10v55.68c0 5.52-4.48 10-10 10H123.42c-5.52 0-10-4.48-10-10V224.9c0-5.52 4.48-10 10-10h173.92z"/><path id="c" d="M490.72 290.58c4.1 0 7.42 3.32 7.42 7.42v60.83c0 4.1-3.32 7.43-7.42 7.43H361.65c-4.1 0-7.43-3.33-7.43-7.43V298c0-4.1 3.33-7.42 7.43-7.42h129.07z"/></defs><path style="opacity:.2" d="M13 3a7 7 0 0 0-6.385 4.146A7 7 0 0 0 1 14a7 7 0 0 0 7 7 7 7 0 0 0 1.193-.102A7 7 0 0 0 15 24a7 7 0 0 0 5.318-2.453A5.5 5.5 0 0 0 22.5 22a5.5 5.5 0 0 0 5.5-5.5 5.5 5.5 0 0 0-.004-.1A5.5 5.5 0 0 0 31 11.5a5.5 5.5 0 0 0-4.943-5.47A4.5 4.5 0 0 0 22.3 4a4.5 4.5 0 0 0-3.655 1.879A7 7 0 0 0 13 3zm6.5 22a2.5 2.5 0 0 0-2.5 2.5 2.5 2.5 0 0 0 2.5 2.5 2.5 2.5 0 0 0 2.5-2.5 2.5 2.5 0 0 0-2.5-2.5zM12 27a2 2 0 0 0-2 2 2 2 0 0 0 2 2 2 2 0 0 0 2-2 2 2 0 0 0-2-2z"/><circle style="fill:#f4f4f7" cx="18.386" cy="9.886" r="3.75"/><circle style="fill:#f4f4f7" cx="13" cy="9" r="7"/><circle style="fill:#f4f4f7" cx="22.3" cy="7.5" r="4.5"/><circle style="fill:#f4f4f7" cx="8" cy="13" r="7"/><circle style="fill:#f4f4f7" cx="25.5" cy="10.5" r="5.5"/><circle style="fill:#f4f4f7" cx="22.5" cy="15.5" r="5.5"/><circle style="fill:#f4f4f7" cx="15" cy="16" r="7"/><path style="fill:none;stroke:#17191e;stroke-width:1.36363637" d="m13.273 12.136 4.772-3.954"/><use style="opacity:.1" width="100%" height="100%" transform="matrix(.04864 0 0 .05286 -.229 .64)" xlink:href="#a"/><use style="fill:#68b723" width="100%" height="100%" transform="matrix(.04864 0 0 .05286 -.229 -.36)" xlink:href="#a"/><path style="fill:none;stroke:#17191e;stroke-width:1.36363637" d="m13.273 13.725 4.772 3.955"/><use style="opacity:.1" width="100%" height="100%" transform="matrix(.04641 0 0 .05285 -.264 .642)" xlink:href="#b"/><use style="fill:#c6262e" width="100%" height="100%" transform="matrix(.04641 0 0 .05285 -.264 -.358)" xlink:href="#b"/><use style="opacity:.1" width="100%" height="100%" transform="matrix(.04864 0 0 .05285 -.229 .642)" xlink:href="#c"/><use style="fill:#3689e6" width="100%" height="100%" transform="matrix(.04864 0 0 .05285 -.229 -.358)" xlink:href="#c"/><circle style="fill:#f4f4f7" cx="19.5" cy="26.5" r="2.5"/><circle style="fill:#f4f4f7" cx="12" cy="28" r="2"/><path style="opacity:.2;fill:#f4f4f7" d="M13 2a7 7 0 0 0-6.385 4.146A7 7 0 0 0 1 13a7 7 0 0 0 .023.463 7 7 0 0 1 5.592-6.317A7 7 0 0 1 13 3a7 7 0 0 1 5.646 2.879A4.5 4.5 0 0 1 22.301 4a4.5 4.5 0 0 1 3.756 2.03A5.5 5.5 0 0 1 30.975 11a5.5 5.5 0 0 0 .025-.5 5.5 5.5 0 0 0-4.943-5.47A4.5 4.5 0 0 0 22.3 3a4.5 4.5 0 0 0-3.655 1.879A7 7 0 0 0 13 2zm6.5 22a2.5 2.5 0 0 0-2.5 2.5 2.5 2.5 0 0 0 .053.504A2.5 2.5 0 0 1 19.5 25a2.5 2.5 0 0 1 2.447 1.996A2.5 2.5 0 0 0 22 26.5a2.5 2.5 0 0 0-2.5-2.5zM12 26a2 2 0 0 0-2 2 2 2 0 0 0 .064.496A2 2 0 0 1 12 27a2 2 0 0 1 1.936 1.504A2 2 0 0 0 14 28a2 2 0 0 0-2-2z"/></svg>

<svg xmlns="http://www.w3.org/2000/svg" xmlns:xlink="http://www.w3.org/1999/xlink" width="32" height="32" preserveAspectRatio="xMidYMid meet" version="1.1">
 <defs>
  <path id="b1Uu1ewGb" d="m 490.72,139.23 c 4.1,0 7.42,3.32 7.42,7.42 0,13.65 0,47.18 0,60.83 0,4.1 -3.32,7.42 -7.42,7.42 -27.3,0 -101.77,0 -129.07,0 -4.1,0 -7.43,-3.32 -7.43,-7.42 0,-13.65 0,-47.18 0,-60.83 0,-4.1 3.33,-7.42 7.43,-7.42 27.3,0 101.77,0 129.07,0 z"/>
  <path id="b24bcEG6b5" d="m 297.34,214.9 c 5.52,0 10,4.48 10,10 0,13.14 0,42.55 0,55.68 0,5.52 -4.48,10 -10,10 -36.79,0 -137.14,0 -173.92,0 -5.52,0 -10,-4.48 -10,-10 0,-13.13 0,-42.54 0,-55.68 0,-5.52 4.48,-10 10,-10 36.78,0 137.13,0 173.92,0 z"/>
  <path id="d4HHCachsN" d="m 490.72,290.58 c 4.1,0 7.42,3.32 7.42,7.42 0,13.65 0,47.18 0,60.83 0,4.1 -3.32,7.43 -7.42,7.43 -27.3,0 -101.77,0 -129.07,0 -4.1,0 -7.43,-3.33 -7.43,-7.43 0,-13.65 0,-47.18 0,-60.83 0,-4.1 3.33,-7.42 7.43,-7.42 27.3,0 101.77,0 129.07,0 z"/>
 </defs>
 <path style="opacity:0.2" d="M 13,3 A 7,7 0 0 0 6.6152344,7.1464844 7,7 0 0 0 1,14 7,7 0 0 0 8,21 7,7 0 0 0 9.1933594,20.898438 7,7 0 0 0 15,24 7,7 0 0 0 20.318359,21.546875 5.5,5.5 0 0 0 22.5,22 5.5,5.5 0 0 0 28,16.5 5.5,5.5 0 0 0 27.996094,16.400391 5.5,5.5 0 0 0 31,11.5 5.5,5.5 0 0 0 26.056641,6.0292969 4.5,4.5 0 0 0 22.300781,4 4.5,4.5 0 0 0 18.646484,5.8789062 7,7 0 0 0 13,3 Z m 6.5,22 A 2.5,2.5 0 0 0 17,27.5 2.5,2.5 0 0 0 19.5,30 2.5,2.5 0 0 0 22,27.5 2.5,2.5 0 0 0 19.5,25 Z M 12,27 a 2,2 0 0 0 -2,2 2,2 0 0 0 2,2 2,2 0 0 0 2,-2 2,2 0 0 0 -2,-2 z"/>
 <ellipse style="fill:#f4f4f7" cx="18.386" cy="9.886" rx="3.75" ry="3.75"/>
 <circle style="fill:#f4f4f7" cx="13" cy="9" r="7"/>
 <circle style="fill:#f4f4f7" cx="22.3" cy="7.5" r="4.5"/>
 <circle style="fill:#f4f4f7" cx="8" cy="13" r="7"/>
 <circle style="fill:#f4f4f7" cx="25.5" cy="10.5" r="5.5"/>
 <circle style="fill:#f4f4f7" cx="22.5" cy="15.5" r="5.5"/>
 <circle style="fill:#f4f4f7" cx="15" cy="16" r="7"/>
 <path style="fill:none;stroke:#17191e;stroke-width:1.36363637" d="M 13.272727,12.136364 18.045454,8.1818182"/>
 <use style="opacity:0.1" width="100%" height="100%" x="0" y="0" transform="matrix(0.04863813,0,0,0.05286111,-0.22859841,0.64014746)" xlink:href="#b1Uu1ewGb"/>
 <use style="fill:#68b723" width="100%" height="100%" x="0" y="0" transform="matrix(0.04863813,0,0,0.05286111,-0.22859841,-0.35985254)" xlink:href="#b1Uu1ewGb"/>
 <path style="fill:none;stroke:#17191e;stroke-width:1.36363637" d="m 13.272727,13.724986 4.772727,3.954545"/>
 <use style="opacity:0.1" width="100%" height="100%" x="0" y="0" transform="matrix(0.04641089,0,0,0.05285412,-0.26392314,0.64165053)" xlink:href="#b24bcEG6b5"/>
 <use style="fill:#c6262e" width="100%" height="100%" x="0" y="0" transform="matrix(0.04641089,0,0,0.05285412,-0.26392314,-0.35834947)" xlink:href="#b24bcEG6b5"/>
 <use style="opacity:0.1" width="100%" height="100%" x="0" y="0" transform="matrix(0.04863813,0,0,0.05285412,-0.22859922,0.64165001)" xlink:href="#d4HHCachsN"/>
 <use style="fill:#3689e6" width="100%" height="100%" x="0" y="0" transform="matrix(0.04863813,0,0,0.05285412,-0.22859922,-0.35834999)" xlink:href="#d4HHCachsN"/>
 <circle style="fill:#f4f4f7" cx="19.5" cy="26.5" r="2.5"/>
 <circle style="fill:#f4f4f7" cx="12" cy="28" r="2"/>
 <path style="opacity:0.2;fill:#f4f4f7" d="M 13 2 A 7 7 0 0 0 6.6152344 6.1464844 A 7 7 0 0 0 1 13 A 7 7 0 0 0 1.0234375 13.462891 A 7 7 0 0 1 6.6152344 7.1464844 A 7 7 0 0 1 13 3 A 7 7 0 0 1 18.646484 5.8789062 A 4.5 4.5 0 0 1 22.300781 4 A 4.5 4.5 0 0 1 26.056641 6.0292969 A 5.5 5.5 0 0 1 30.974609 11 A 5.5 5.5 0 0 0 31 10.5 A 5.5 5.5 0 0 0 26.056641 5.0292969 A 4.5 4.5 0 0 0 22.300781 3 A 4.5 4.5 0 0 0 18.646484 4.8789062 A 7 7 0 0 0 13 2 z M 19.5 24 A 2.5 2.5 0 0 0 17 26.5 A 2.5 2.5 0 0 0 17.052734 27.003906 A 2.5 2.5 0 0 1 19.5 25 A 2.5 2.5 0 0 1 21.947266 26.996094 A 2.5 2.5 0 0 0 22 26.5 A 2.5 2.5 0 0 0 19.5 24 z M 12 26 A 2 2 0 0 0 10 28 A 2 2 0 0 0 10.064453 28.496094 A 2 2 0 0 1 12 27 A 2 2 0 0 1 13.935547 28.503906 A 2 2 0 0 0 14 28 A 2 2 0 0 0 12 26 z"/>
</svg>
